docs/.gitbook/assets/icon-hashtag-16@light.svg

<svg width="32" height="32" viewBox="0 0 16 16" fill="none" xmlns="http://www.w3.org/2000/svg">
<rect x="0" y="0" width="16" height="16" fill="#fff"/>
<path fill-rule="evenodd" clip-rule="evenodd" d="M6.35607 2.00751C6.76612 2.06609 7.05104 2.44599 6.99246 2.85604L6.68619 4.99997H10.171L10.5075 2.64391C10.5661 2.23386 10.946 1.94893 11.3561 2.00751C11.7661 2.06609 12.051 2.44599 11.9925 2.85604L11.6862 4.99997H13.25C13.6642 4.99997 14 5.33576 14 5.74997C14 6.16419 13.6642 6.49997 13.25 6.49997H11.4719L11.0433 9.49997H12.25C12.6642 9.49997 13 9.83576 13 10.25C13 10.6642 12.6642 11 12.25 11H10.829L10.4925 13.356C10.4339 13.7661 10.054 14.051 9.64393 13.9924C9.23388 13.9339 8.94896 13.554 9.00754 13.1439L9.31381 11H5.82904L5.49246 13.356C5.43388 13.7661 5.05398 14.051 4.64393 13.9924C4.23388 13.9339 3.94896 13.554 4.00754 13.1439L4.31381 11H2.75C2.33579 11 2 10.6642 2 10.25C2 9.83576 2.33579 9.49997 2.75 9.49997H4.5281L4.95667 6.49997H3.75C3.33579 6.49997 3 6.16419 3 5.74997C3 5.33576 3.33579 4.99997 3.75 4.99997H5.17096L5.50754 2.64391C5.56612 2.23386 5.94602 1.94893 6.35607 2.00751ZM6.4719 6.49997L6.04333 9.49997H9.5281L9.95667 6.49997H6.4719Z" fill="#000"/>
</svg>

<svg xmlns="http://www.w3.org/2000/svg" width="32" height="32" fill="none" viewBox="0 0 16 16"><path fill="#fff" d="M0 0h16v16H0z"/><path fill="#000" fill-rule="evenodd" d="M6.356 2.008a.75.75 0 0 1 .636.848L6.686 5h3.485l.337-2.356a.75.75 0 0 1 1.485.212L11.686 5h1.564a.75.75 0 0 1 0 1.5h-1.778l-.429 3h1.207a.75.75 0 0 1 0 1.5h-1.421l-.337 2.356a.75.75 0 0 1-1.484-.212L9.314 11H5.829l-.337 2.356a.75.75 0 1 1-1.484-.212L4.314 11H2.75a.75.75 0 0 1 0-1.5h1.778l.429-3H3.75a.75.75 0 1 1 0-1.5h1.421l.337-2.356a.75.75 0 0 1 .848-.636M6.472 6.5l-.429 3h3.485l.429-3z" clip-rule="evenodd"/></svg>
